X: 14
T: Shange yuejin ge yueduo
L: 1/4
M: 3/4
K: Bb
c'3 [I:setbarnb 1]| 
g3 | 
bc'b/ c'/ | 
gf3/g/ | 
bc'g/ b/ | 
c'g2- | 
g2b | 
c'c'g/ b/ | 
gf2 | 
c'bg | 
f3- | 
f2z | 
bc'b/ c'/ | 
gff | 
c'gg/ b/ | 
c'g2- | 
g2c' | 
bc'g/ b/ | 
gf2 | 
c'f2 | 
f3- | 
f3 |]

@@@ Tune index: 8682
